Numix-Circle/48x48/apps/web-pocket.svg

<?xml version="1.0" encoding="UTF-8" standalone="no"?>
<svg
   xmlns:dc="http://purl.org/dc/elements/1.1/"
   xmlns:cc="http://creativecommons.org/ns#"
   xmlns:rdf="http://www.w3.org/1999/02/22-rdf-syntax-ns#"
   xmlns:svg="http://www.w3.org/2000/svg"
   xmlns="http://www.w3.org/2000/svg"
   xmlns:xlink="http://www.w3.org/1999/xlink"
   xmlns:sodipodi="http://sodipodi.sourceforge.net/DTD/sodipodi-0.dtd"
   xmlns:inkscape="http://www.inkscape.org/namespaces/inkscape"
   viewBox="0 0 48 48"
   id="svg2"
   version="1.1"
   inkscape:version="0.48.4 r9939"
   width="100%"
   height="100%"
   sodipodi:docname="web-pocket.svg">
  <metadata
     id="metadata77">
    <rdf:RDF>
      <cc:Work
         rdf:about="">
        <dc:format>image/svg+xml</dc:format>
        <dc:type
           rdf:resource="http://purl.org/dc/dcmitype/StillImage" />
      </cc:Work>
    </rdf:RDF>
  </metadata>
  <sodipodi:namedview
     pagecolor="#ffffff"
     bordercolor="#666666"
     borderopacity="1"
     objecttolerance="10"
     gridtolerance="10"
     guidetolerance="10"
     inkscape:pageopacity="0"
     inkscape:pageshadow="2"
     inkscape:window-width="640"
     inkscape:window-height="480"
     id="namedview75"
     showgrid="false"
     inkscape:zoom="9.8333333"
     inkscape:cx="25.532599"
     inkscape:cy="38.804743"
     inkscape:window-x="0"
     inkscape:window-y="0"
     inkscape:window-maximized="0"
     inkscape:current-layer="svg2" />
  <defs
     id="defs4">
    <linearGradient
       id="linearGradient3764"
       x1="1"
       x2="47"
       gradientUnits="userSpaceOnUse"
       gradientTransform="matrix(0,-1,1,0,-1.5e-6,47.999998)">
      <stop
         stop-color="#eee"
         stop-opacity="1"
         id="stop7" />
      <stop
         offset="1"
         stop-color="#f8f8f8"
         stop-opacity="1"
         id="stop9" />
    </linearGradient>
    <clipPath
       id="clipPath-712313768">
      <g
         transform="translate(0,-1004.3622)"
         id="g12">
        <path
           d="m -24 13 c 0 1.105 -0.672 2 -1.5 2 -0.828 0 -1.5 -0.895 -1.5 -2 0 -1.105 0.672 -2 1.5 -2 0.828 0 1.5 0.895 1.5 2 z"
           transform="matrix(15.333333,0,0,11.5,414.99999,878.8622)"
           fill="#1890d0"
           id="path14" />
      </g>
    </clipPath>
    <clipPath
       id="clipPath-718260558">
      <g
         transform="translate(0,-1004.3622)"
         id="g17">
        <path
           d="m -24 13 c 0 1.105 -0.672 2 -1.5 2 -0.828 0 -1.5 -0.895 -1.5 -2 0 -1.105 0.672 -2 1.5 -2 0.828 0 1.5 0.895 1.5 2 z"
           transform="matrix(15.333333,0,0,11.5,414.99999,878.8622)"
           fill="#1890d0"
           id="path19" />
      </g>
    </clipPath>
    <linearGradient
       inkscape:collect="always"
       xlink:href="#linearGradient3764"
       id="linearGradient3078"
       gradientUnits="userSpaceOnUse"
       gradientTransform="matrix(0,-1,1,0,-1.5e-6,47.999998)"
       x1="1"
       x2="47" />
    <linearGradient
       inkscape:collect="always"
       xlink:href="#linearGradient3764"
       id="linearGradient3081"
       gradientUnits="userSpaceOnUse"
       gradientTransform="matrix(0,-1,1,0,-1.5e-6,47.999998)"
       x1="1"
       x2="47" />
    <linearGradient
       inkscape:collect="always"
       xlink:href="#linearGradient3764"
       id="linearGradient3084"
       gradientUnits="userSpaceOnUse"
       gradientTransform="matrix(0,-1,1,0,-1.5e-6,47.999998)"
       x1="1"
       x2="47" />
    <linearGradient
       inkscape:collect="always"
       xlink:href="#linearGradient3764"
       id="linearGradient3087"
       gradientUnits="userSpaceOnUse"
       gradientTransform="matrix(0,-1,1,0,-1.5e-6,47.999998)"
       x1="1"
       x2="47" />
    <linearGradient
       inkscape:collect="always"
       xlink:href="#linearGradient3764"
       id="linearGradient3153"
       gradientUnits="userSpaceOnUse"
       gradientTransform="matrix(0,-1,1,0,-1.5e-6,47.999998)"
       x1="1"
       x2="47" />
    <linearGradient
       inkscape:collect="always"
       xlink:href="#linearGradient3764"
       id="linearGradient3158"
       gradientUnits="userSpaceOnUse"
       gradientTransform="matrix(0,-1,1,0,-1.5e-6,47.999998)"
       x1="1"
       x2="47" />
    <linearGradient
       inkscape:collect="always"
       xlink:href="#linearGradient3764"
       id="linearGradient3177"
       gradientUnits="userSpaceOnUse"
       gradientTransform="matrix(0,-1,1,0,-1.5e-6,47.999998)"
       x1="1"
       x2="47" />
    <linearGradient
       inkscape:collect="always"
       xlink:href="#linearGradient3764"
       id="linearGradient3185"
       gradientUnits="userSpaceOnUse"
       gradientTransform="matrix(0,-1,1,0,-1.5e-6,47.999998)"
       x1="1"
       x2="47" />
  </defs>
  <g
     id="g21">
    <path
       d="m 36.31 5 c 5.859 4.062 9.688 10.831 9.688 18.5 c 0 12.426 -10.07 22.5 -22.5 22.5 c -7.669 0 -14.438 -3.828 -18.5 -9.688 c 1.037 1.822 2.306 3.499 3.781 4.969 c 4.085 3.712 9.514 5.969 15.469 5.969 c 12.703 0 23 -10.298 23 -23 c 0 -5.954 -2.256 -11.384 -5.969 -15.469 c -1.469 -1.475 -3.147 -2.744 -4.969 -3.781 z m 4.969 3.781 c 3.854 4.113 6.219 9.637 6.219 15.719 c 0 12.703 -10.297 23 -23 23 c -6.081 0 -11.606 -2.364 -15.719 -6.219 c 4.16 4.144 9.883 6.719 16.219 6.719 c 12.703 0 23 -10.298 23 -23 c 0 -6.335 -2.575 -12.06 -6.719 -16.219 z"
       opacity="0.05"
       id="path23" />
    <path
       d="m 41.28 8.781 c 3.712 4.085 5.969 9.514 5.969 15.469 c 0 12.703 -10.297 23 -23 23 c -5.954 0 -11.384 -2.256 -15.469 -5.969 c 4.113 3.854 9.637 6.219 15.719 6.219 c 12.703 0 23 -10.298 23 -23 c 0 -6.081 -2.364 -11.606 -6.219 -15.719 z"
       opacity="0.1"
       id="path25" />
    <path
       d="m 31.25 2.375 c 8.615 3.154 14.75 11.417 14.75 21.13 c 0 12.426 -10.07 22.5 -22.5 22.5 c -9.708 0 -17.971 -6.135 -21.12 -14.75 a 23 23 0 0 0 44.875 -7 a 23 23 0 0 0 -16 -21.875 z"
       opacity="0.2"
       id="path27" />
  </g>
  <path
     style="fill:url(#linearGradient3185);fill-opacity:1"
     d="M 26.71875 1.15625 C 27.13228 1.2061049 27.531095 1.2719359 27.9375 1.34375 C 27.533937 1.2739596 27.129228 1.2047157 26.71875 1.15625 z M 12.53125 4.09375 C 11.577146 4.6439612 10.673872 5.2293403 9.8125 5.90625 C 10.674197 5.2338454 11.576772 4.6418925 12.53125 4.09375 z M 7.375 8.125 C 6.9988336 8.5187948 6.6289469 8.924061 6.28125 9.34375 C 6.6306118 8.9238707 6.9968893 8.5182562 7.375 8.125 z M 4.375 12 C 2.2397629 15.490394 1 19.608474 1 24 C 1 36.703 11.297 47 24 47 C 36.703 47 47 36.703 47 24 C 47 19.597163 45.741408 15.489862 43.59375 12 L 34 12 L 24 12 L 14 12 L 4.375 12 z "
     id="path31" />
  <g
     id="g33" />
  <path
     style="opacity:0.1;fill:#000000;fill-opacity:1;fill-rule:nonzero;stroke:none"
     d="M 4.40625,12 C 4.2042804,12.329534 3.9981286,12.65978 3.8125,13 L 15,13 l 10,0 10,0 9.1875,0 C 44.001871,12.65978 43.79572,12.329534 43.59375,12 L 34,12 24,12 14,12 z"
     id="path45"
     inkscape:connector-curvature="0"
     sodipodi:nodetypes="ccccccccccc" />
  <path
     style="opacity:0.1;fill:#000000;fill-opacity:1;fill-rule:nonzero;stroke:none"
     inkscape:connector-curvature="0"
     id="path53"
     d="m 15.402,18 c -1.086,0 -2.133,0.168 -2.754,0.926 C 11.695,20.086 12,22 12,23.817 c 0,2.141 -0.066,4.43 0.348,6.543 0.441,2.258 1.996,4.723 3.754,6.254 1.273,1.109 2.637,1.898 4.215,2.539 1.543,0.57 3.02,0.832 4.57,0.848 1.422,0 2.852,-0.156 4.203,-0.617 1.375,-0.469 2.77,-1.137 3.93,-2 1.207,-0.98 2.172,-1.949 2.938,-3.164 0.559,-0.906 1.027,-1.891 1.375,-2.891 0.859,-2.488 0.668,-5.406 0.668,-7.992 0,-1.168 0.238,-3.281 -0.508,-4.27 -1.125,-1.492 -3.641,-1.063 -5.492,-1.063 l -14,0 c -0.703,0 -1.754,0 -2.598,0 m 15.758,6.379 c 0.301,0 0.613,0.082 0.941,0.289 0.742,0.473 0.98,1.609 0.457,2.316 -2.141,2.02 -4.926,5.504 -7.559,6.414 -3,-1.813 -5.367,-4.09 -7.57,-6.484 -0.66,-1.07 0.105,-2.348 1.313,-2.516 0.773,-0.109 1.32,0.355 1.859,0.813 1.379,1.316 3.191,3.273 4.398,3.789 1.465,-0.574 2.566,-2.055 3.816,-3.188 0.656,-0.625 1.441,-1.426 2.344,-1.434 m 0,0" />
  <path
     style="fill:#7febb8;fill-opacity:1;fill-rule:nonzero;stroke:none"
     d="M 14 3.3125 C 10.015564 5.2413146 6.6718282 8.2454592 4.375 12 L 14 12 L 14 3.3125 z "
     id="path61" />
  <path
     style="fill:#4cb8b2;fill-opacity:1;fill-rule:nonzero;stroke:none"
     d="M 24 1 C 20.412395 1 17.026033 1.8476361 14 3.3125 L 14 12 L 24 12 L 24 1 z "
     id="path63" />
  <path
     style="fill:#eb3d51;fill-opacity:1;fill-rule:nonzero;stroke:none"
     d="M 24 1 L 24 12 L 34 12 L 34 3.3125 C 30.973967 1.8476361 27.587605 1 24 1 z "
     id="path65" />
  <path
     style="fill:#fab24a;fill-opacity:1;fill-rule:nonzero;stroke:none"
     d="M 34 3.3125 L 34 12 L 43.625 12 C 41.328172 8.2454592 37.984436 5.2413146 34 3.3125 z "
     id="path67" />
  <path
     style="fill:#eb3d51;fill-opacity:1;fill-rule:nonzero;stroke:none"
     inkscape:connector-curvature="0"
     id="path69"
     d="m 14.402,17 c -1.086,0 -2.133,0.168 -2.754,0.926 C 10.695,19.086 11,21 11,22.817 c 0,2.141 -0.066,4.43 0.348,6.543 0.441,2.258 1.996,4.723 3.754,6.254 1.273,1.109 2.637,1.898 4.215,2.539 1.543,0.57 3.02,0.832 4.57,0.848 1.422,0 2.852,-0.156 4.203,-0.617 1.375,-0.469 2.77,-1.137 3.93,-2 1.207,-0.98 2.172,-1.949 2.938,-3.164 0.559,-0.906 1.027,-1.891 1.375,-2.891 0.859,-2.488 0.668,-5.406 0.668,-7.992 0,-1.168 0.238,-3.281 -0.508,-4.27 -1.125,-1.492 -3.641,-1.063 -5.492,-1.063 l -14,0 c -0.703,0 -1.754,0 -2.598,0 m 15.758,6.379 c 0.301,0 0.613,0.082 0.941,0.289 0.742,0.473 0.98,1.609 0.457,2.316 -2.141,2.02 -4.926,5.504 -7.559,6.414 -3,-1.813 -5.367,-4.09 -7.57,-6.484 -0.66,-1.07 0.105,-2.348 1.313,-2.516 0.773,-0.109 1.32,0.355 1.859,0.813 1.379,1.316 3.191,3.273 4.398,3.789 1.465,-0.574 2.566,-2.055 3.816,-3.188 0.656,-0.625 1.441,-1.426 2.344,-1.434 m 0,0" />
  <g
     id="g71">
    <path
       d="m 40.03 7.531 c 3.712 4.084 5.969 9.514 5.969 15.469 0 12.703 -10.297 23 -23 23 c -5.954 0 -11.384 -2.256 -15.469 -5.969 4.178 4.291 10.01 6.969 16.469 6.969 c 12.703 0 23 -10.298 23 -23 0 -6.462 -2.677 -12.291 -6.969 -16.469 z"
       id="path73"
       opacity="0.1" />
  </g>
  <path
     id="path3161"
     d="M 24 1 L 24 12 L 34 12 L 34 3.3125 C 30.973967 1.8476361 27.587605 1 24 1 z "
     style="fill:#eb3d51;fill-opacity:1;fill-rule:nonzero;stroke:none" />
</svg>

<svg xmlns="http://www.w3.org/2000/svg" xmlns:xlink="http://www.w3.org/1999/xlink" viewBox="0 0 48 48"><defs><clipPath><g transform="translate(0,-1004.3622)"><path d="m -24 13 c 0 1.105 -0.672 2 -1.5 2 -0.828 0 -1.5 -0.895 -1.5 -2 0 -1.105 0.672 -2 1.5 -2 0.828 0 1.5 0.895 1.5 2 z" transform="matrix(15.333333,0,0,11.5,414.99999,878.8622)" fill="#1890d0"/></g></clipPath><clipPath><g transform="translate(0,-1004.3622)"><path d="m -24 13 c 0 1.105 -0.672 2 -1.5 2 -0.828 0 -1.5 -0.895 -1.5 -2 0 -1.105 0.672 -2 1.5 -2 0.828 0 1.5 0.895 1.5 2 z" transform="matrix(15.333333,0,0,11.5,414.99999,878.8622)" fill="#1890d0"/></g></clipPath><linearGradient id="linearGradient3185" gradientUnits="userSpaceOnUse" gradientTransform="matrix(0,-1,1,0,-1.5e-6,47.999998)" x1="1" x2="47"><stop stop-color="#eee" stop-opacity="1"/><stop offset="1" stop-color="#f8f8f8" stop-opacity="1"/></linearGradient></defs><g><path d="m 36.31 5 c 5.859 4.062 9.688 10.831 9.688 18.5 c 0 12.426 -10.07 22.5 -22.5 22.5 c -7.669 0 -14.438 -3.828 -18.5 -9.688 c 1.037 1.822 2.306 3.499 3.781 4.969 c 4.085 3.712 9.514 5.969 15.469 5.969 c 12.703 0 23 -10.298 23 -23 c 0 -5.954 -2.256 -11.384 -5.969 -15.469 c -1.469 -1.475 -3.147 -2.744 -4.969 -3.781 z m 4.969 3.781 c 3.854 4.113 6.219 9.637 6.219 15.719 c 0 12.703 -10.297 23 -23 23 c -6.081 0 -11.606 -2.364 -15.719 -6.219 c 4.16 4.144 9.883 6.719 16.219 6.719 c 12.703 0 23 -10.298 23 -23 c 0 -6.335 -2.575 -12.06 -6.719 -16.219 z" opacity="0.05"/><path d="m 41.28 8.781 c 3.712 4.085 5.969 9.514 5.969 15.469 c 0 12.703 -10.297 23 -23 23 c -5.954 0 -11.384 -2.256 -15.469 -5.969 c 4.113 3.854 9.637 6.219 15.719 6.219 c 12.703 0 23 -10.298 23 -23 c 0 -6.081 -2.364 -11.606 -6.219 -15.719 z" opacity="0.1"/><path d="m 31.25 2.375 c 8.615 3.154 14.75 11.417 14.75 21.13 c 0 12.426 -10.07 22.5 -22.5 22.5 c -9.708 0 -17.971 -6.135 -21.12 -14.75 a 23 23 0 0 0 44.875 -7 a 23 23 0 0 0 -16 -21.875 z" opacity="0.2"/></g><path d="m 26.719 1.156 c 0.414 0.05 0.812 0.116 1.219 0.188 c -0.404 -0.07 -0.808 -0.139 -1.219 -0.188 z m -14.188 2.938 c -0.954 0.55 -1.857 1.136 -2.719 1.813 c 0.862 -0.672 1.764 -1.264 2.719 -1.813 z m -5.156 4.03 c -0.376 0.394 -0.746 0.799 -1.094 1.219 c 0.349 -0.42 0.716 -0.825 1.094 -1.219 z m -3 3.875 c -2.135 3.49 -3.375 7.608 -3.375 12 c 0 12.703 10.297 23 23 23 c 12.703 0 23 -10.297 23 -23 c 0 -4.403 -1.259 -8.51 -3.406 -12 l -9.594 0 l -10 0 l -10 0 l -9.625 0 z" fill="url(#linearGradient3185)" fill-opacity="1"/><path d="m 4.406 12 c -0.202 0.33 -0.408 0.66 -0.594 1 l 11.188 0 l 10 0 10 0 9.188 0 c -0.186 -0.34 -0.392 -0.67 -0.594 -1 l -9.594 0 -10 0 -10 0 z" opacity="0.1" fill="#000" fill-rule="nonzero" stroke="none" fill-opacity="1"/><path d="m 15.402,18 c -1.086,0 -2.133,0.168 -2.754,0.926 C 11.695,20.086 12,22 12,23.817 c 0,2.141 -0.066,4.43 0.348,6.543 0.441,2.258 1.996,4.723 3.754,6.254 1.273,1.109 2.637,1.898 4.215,2.539 1.543,0.57 3.02,0.832 4.57,0.848 1.422,0 2.852,-0.156 4.203,-0.617 1.375,-0.469 2.77,-1.137 3.93,-2 1.207,-0.98 2.172,-1.949 2.938,-3.164 0.559,-0.906 1.027,-1.891 1.375,-2.891 0.859,-2.488 0.668,-5.406 0.668,-7.992 0,-1.168 0.238,-3.281 -0.508,-4.27 -1.125,-1.492 -3.641,-1.063 -5.492,-1.063 l -14,0 c -0.703,0 -1.754,0 -2.598,0 m 15.758,6.379 c 0.301,0 0.613,0.082 0.941,0.289 0.742,0.473 0.98,1.609 0.457,2.316 -2.141,2.02 -4.926,5.504 -7.559,6.414 -3,-1.813 -5.367,-4.09 -7.57,-6.484 -0.66,-1.07 0.105,-2.348 1.313,-2.516 0.773,-0.109 1.32,0.355 1.859,0.813 1.379,1.316 3.191,3.273 4.398,3.789 1.465,-0.574 2.566,-2.055 3.816,-3.188 0.656,-0.625 1.441,-1.426 2.344,-1.434 m 0,0" opacity="0.1" fill="#000" fill-rule="nonzero" stroke="none" fill-opacity="1"/><path d="m 14 3.313 c -3.984 1.929 -7.328 4.933 -9.625 8.688 l 9.625 0 l 0 -8.688 z" fill="#7febb8" fill-rule="nonzero" stroke="none" fill-opacity="1"/><path d="m 24 1 c -3.588 0 -6.974 0.848 -10 2.313 l 0 8.688 l 10 0 l 0 -11 z" fill="#4cb8b2" fill-rule="nonzero" stroke="none" fill-opacity="1"/><path d="m 24 1 l 0 11 l 10 0 l 0 -8.688 c -3.03 -1.465 -6.412 -2.313 -10 -2.313 z" fill="#eb3d51" fill-rule="nonzero" stroke="none" fill-opacity="1" id="SVGCleanerId_0"/><path d="m 34 3.313 l 0 8.688 l 9.625 0 c -2.297 -3.755 -5.641 -6.759 -9.625 -8.688 z" fill="#fab24a" fill-rule="nonzero" stroke="none" fill-opacity="1"/><path d="m 14.402,17 c -1.086,0 -2.133,0.168 -2.754,0.926 C 10.695,19.086 11,21 11,22.817 c 0,2.141 -0.066,4.43 0.348,6.543 0.441,2.258 1.996,4.723 3.754,6.254 1.273,1.109 2.637,1.898 4.215,2.539 1.543,0.57 3.02,0.832 4.57,0.848 1.422,0 2.852,-0.156 4.203,-0.617 1.375,-0.469 2.77,-1.137 3.93,-2 1.207,-0.98 2.172,-1.949 2.938,-3.164 0.559,-0.906 1.027,-1.891 1.375,-2.891 0.859,-2.488 0.668,-5.406 0.668,-7.992 0,-1.168 0.238,-3.281 -0.508,-4.27 -1.125,-1.492 -3.641,-1.063 -5.492,-1.063 l -14,0 c -0.703,0 -1.754,0 -2.598,0 m 15.758,6.379 c 0.301,0 0.613,0.082 0.941,0.289 0.742,0.473 0.98,1.609 0.457,2.316 -2.141,2.02 -4.926,5.504 -7.559,6.414 -3,-1.813 -5.367,-4.09 -7.57,-6.484 -0.66,-1.07 0.105,-2.348 1.313,-2.516 0.773,-0.109 1.32,0.355 1.859,0.813 1.379,1.316 3.191,3.273 4.398,3.789 1.465,-0.574 2.566,-2.055 3.816,-3.188 0.656,-0.625 1.441,-1.426 2.344,-1.434 m 0,0" fill="#eb3d51" fill-rule="nonzero" stroke="none" fill-opacity="1"/><g><path d="m 40.03 7.531 c 3.712 4.084 5.969 9.514 5.969 15.469 0 12.703 -10.297 23 -23 23 c -5.954 0 -11.384 -2.256 -15.469 -5.969 4.178 4.291 10.01 6.969 16.469 6.969 c 12.703 0 23 -10.298 23 -23 0 -6.462 -2.677 -12.291 -6.969 -16.469 z" opacity="0.1"/></g><use xlink:href="#SVGCleanerId_0"/></svg>
